X:1
T:Joven Galileo
T:Joven Galileo
T:Misa - Comunión
T:Jésed
C:Jésed
%%score 1 2 3
L:1/8
Q:1/4=70
M:4/4
K:D
V:1 treble transpose=-14 nm="Tenor Saxophone" snm="T. Sax."
V:2 treble transpose=-9 nm="Alto Saxophone" snm="A. Sax."
V:3 tab stafflines=6 strings=E2,A2,D3,G3,B3,E4 nm="Guitar" snm="Guit."
V:1
[K:E] z4 z egf |{/f} g4 g2 a2 |{/a} b4{/b} c'bag | a6 b2 |{/b} ^b3 =b a2 b2 | (ag) g3 z g/f/e | %6
 f4 =g4 |] %7
V:2
[K:B] z4 z Bdc |{/c} d4 d2 e2 |{/e} f4{/f} gfed | e6 f2 |{/f} ^^f3 ^f e2 f2 | (ed) d3 z d/c/B | %6
 c4 =d4 |] %7
V:3
"D" !4!D,!3!A,!1!E!2!D !1!F!2!D!1!F!1!E |{/!1!E} !1!F4 !1!F2 !1!G2 | %2
"Am"{/!1!G} !1!A4{/!1!A} !1!B!1!A!2!G!2!F |"G" !1!G6 !1!A2 | %4
"Gm"{/!1!A} !1!^A3 !1!=A"Em7b5" !1!G2 !1!A2 |"D" (!1!G!1!F) !1!F3 x !1!F/!1!E/!2!D | %6
"A" !1!E4"A+" !1!=F4 |] %7

